X: 27446
T: Molly Bán
R: reel
M: 4/4
K: Edorian
|:EBBA B2 AG|FD D2 BDAF|EBBA B3c|dBAF BAGF|
EBBA B2 AG|FDAD BDAD|EBBA B3c|dBAc BE E2:|
|:eB B2 e2fe|dA A2 dcdf|eB B2 e2fe|dBAF BE E2|
eB B2 e2fe|dA A2 dcde|f3e defe|dBAF BE E2:|

